X:1
T:Title
%%score 1 { 2 | 3 }
L:1/8
Q:1/4=95
M:3/4
K:G
V:1 treble nm="Grand Piano, Soprano"
V:2 treble nm="Choir Pad, Oise, 87.87.87 D"
V:3 bass 
V:1
 [DG]>[DA] [GB]3 [DG] | [EA]>[EG] [EG] [CE]3 | [EG]>[CE] D3 [DG] | [FA]>[GB] [FA]4 | %4
w: By~Robert~Lowry,~1871 * * *||||
 G>[GA] [GB]3 [DG] | [EA]>[EG] [DF] [CE]3 | [DF]>[DG] [DA]3 [DF] | [^CE]>[CF] D4 | %8
w: ||||
 [Dd]>[Dd] [Gd]3 [GB] | [DA][DG] [CE] [B,D]3 | [DG]>[DA] [GB]3 [DG] | [FA]>[GB] [FA]4 | %12
w: ||||
 [Fd]>[Fd] [Gd]3 [GB] | [DA][DG] [EG] [CE]3 | [DG]>[EA] [DB]3 [DG] | [DA]>[DA] [DG]4 | %16
w: ||||
 [Dd]>[Dd] [Gd]3 [GB] | [DA][DG] [CE] [B,D]3 | [DG]>[DA] [GB]3 [DG] | [FA]>[GB] [FA]4 | %20
w: ||||
 [Fd]>[Fd] [Gd]3 [GB] | [DA][DG] [EG] [CE]3 | [DG]>[EA] [DB]3 [DG] | [DA]>[DA] [DG]4- | [DG]4 z2 |] %25
w: |||||
V:2
 B,>C D3 B, | C>C C[K:bass] G,3 | C>G, G,3 B, | D>D D4 | B,>C D3 B, | C>C[K:bass] G, G,3 | %6
 A,>G, F,3 A, | G,>A, F,4 | B,>B, B,3 D | CB, G, G,3 | B,>[K:treble]C D3 B, | D>D D4 | %12
 A,>A, B,3 D | CB, C G,3 | G,>G, G,3 B, | C>C B,4 | B,>B, B,3 D | CB, G, G,3 | %18
 B,>[K:treble]C D3 B, | D>D D4 | A,>A, B,3 D | CB, C G,3 | G,>G, G,3 B, | C>C B,4- | B,4 z2 |] %25
V:3
 G,>G, G,3 G, | C,>C, C, C,3 | C,>C, B,,3 G,, | D,>D, D,4 | G,>G, G,3 G, | C,>C, C, C,3 | %6
 C,>B,, A,,3 A,, | A,,>A,, D,4 | G,>G, G,3 G, | G,G, z2 z2 | G,>G, G,3 G, | D,>D, D,4 | %12
 D,>D, G,3 G, | G,G, C, C,3 | B,,>C, D,3 D, | D,>D, G,,4 | G,>G, G,3 G, | G,G, z2 z2 | %18
 G,>G, G,3 G, | D,>D, D,4 | D,>D, G,3 G, | G,G, C, C,3 | B,,>C, D,3 D, | D,>D, G,,4- | G,,4 z2 |] %25

